X:1
T:Pietosa industre mano
T:Pietosa industre mano
T:Tomaso Cecchino
T:Source : Canti Spirituali a uno, due et tre voci + BC ---Venetia---G.Vincenti---1613. Editor André Vierendeels (25/10/16).
T:Notes : Original clefs  C1, F4 Figures in BC are notated in original print Note values have been halved in 3-beat measures
T:©
T:©
T:©
T:©
C:Tomaso Cecchino
Z:©
%%score 1 2
L:1/8
Q:1/4=98
M:4/4
K:F
V:1 treble nm="Soprano" snm="S"
V:2 bass nm="MusicXML Part"
V:1
 z2 F2 ^F4- | F2 G2 G3 A | A4 A4 | z2 c2 B4- | B2 A2 A4- | A2 G4 ^F2 | G8 | z2 ^GG G2 GA | %8
w: Pie- to|_ s'in- du- stre|ma- no,|ch'in for-|* mi si|_ do- len-|ti,|tor- men- ta- to Gie-|
 A4 z2 A2 | B3 c A4 | G8 |[M:3/4] d3 c B2 | A4 G2 | F4 z2 | A3 B c2 |[M:4/4] G4 F4 :: %16
w: su mi|rap- pre- sen-|ti,|go- di che|tua pie-|ta|non fa- ra'in|va- no,|
 z2 EE ^F2 FG | G4 G4 | z GGA B3 c | A4 A2 dc | B4 AB c2 | G4 F4 | z2 ^FF G4- | G2 A4 =B2 | %24
w: tu for- ma- st'i ca-|lo- ri,|ed'- io qual' hor lui|mi- ri, por- ge-|ro, por- ge- ro'i|sen- si|a le pia-|* ghe'i do-|
 ^G4 G2 GG | A2 EF E4 | E2 E2 F3 F | F2 A2 G4 | G2 GA B2 AG | A4 AB c2 | G/A/G E2 F4 :: %31
w: lo- ri, a la|boc- ca'i so- spi-|ri, a gl'oc- chi'al|vol- to san-|to, con le la- gri- me|mie for- ma- ro'il|pian- * * * to.|
[M:8/4] G2 G2 G2 G2 G2 G2 G2 G2 |[M:4/4] A3 E ^F4 | ^F8 |[M:8/4] A2 A2 A2 A2 A2 A2 A2 A2 | %35
w: co- si l'i- ma- go pi- a de|sen- si pri-|va,|sa- ra ne sen- si mie- i spi-|
[M:4/4] G3 A FEDE | FGAB c3 A | BGAF G4 | F8 :| %39
w: ran- t'e vi- * * *|||va|
V:2
"^BC" F,4 D,4- | D,4 =B,,2 C,2 | F,,8 | F,,4 G,,4 | D,6 C,2 | =B,,4 A,,4 |"^-natural" G,,8 | %7
 E,4 E,4 |"^#" A,,4 D,4 | G,,4 D,4 | G,,8 |[M:3/4] B,,3 A,, G,,2 | F,,4 C,2 | D,3 C, B,,2 | %14
 F,,3 G,, A,,B,, |[M:4/4] C,4 F,,4 ::"^#" A,,4 D,4 | G,,4 G,,4 |"^b" C,4 G,,4 |"^#" D,4 D,4 | %20
 G,4 F,2 A,,B,, | C,4 F,,4 | D,4 =B,,4 |"^#" C,4 D,4 | E,4 E,4 |"^#""^#" A,,4 A,,4 | A,,4 F,,4- | %27
 F,,4 C,4 | C,4 G,,4 | D,4 D,2 A,,B,, | C,4 F,,4 ::[M:8/4] C,16 |[M:4/4]"^#" A,,4 D,,4 | D,,8 | %34
[M:8/4] F,,16 |[M:4/4] C,4 D,4- | D,4 A,,4 | G,,2 F,,2 C,4 | F,,8 :| %39

